svg/business/gift_2_fill.svg

<?xml version="1.0" encoding="UTF-8"?>
<svg width="24px" height="24px" viewBox="0 0 24 24" version="1.1" xmlns="http://www.w3.org/2000/svg" xmlns:xlink="http://www.w3.org/1999/xlink">
    <title>gift_2_fill</title>
    <g id="页面-1" stroke="none" stroke-width="1" fill="none" fill-rule="evenodd">
        <g id="Business" transform="translate(-816.000000, -336.000000)">
            <g id="gift_2_fill" transform="translate(816.000000, 336.000000)">
                <path d="M24,0 L24,24 L0,24 L0,0 L24,0 Z M12.5934901,23.257841 L12.5819402,23.2595131 L12.5108777,23.2950439 L12.4918791,23.2987469 L12.4918791,23.2987469 L12.4767152,23.2950439 L12.4056548,23.2595131 C12.3958229,23.2563662 12.3870493,23.2590235 12.3821421,23.2649074 L12.3780323,23.275831 L12.360941,23.7031097 L12.3658947,23.7234994 L12.3769048,23.7357139 L12.4804777,23.8096931 L12.4953491,23.8136134 L12.4953491,23.8136134 L12.5071152,23.8096931 L12.6106902,23.7357139 L12.6232938,23.7196733 L12.6232938,23.7196733 L12.6266527,23.7031097 L12.609561,23.275831 C12.6075724,23.2657013 12.6010112,23.2592993 12.5934901,23.257841 L12.5934901,23.257841 Z M12.8583906,23.1452862 L12.8445485,23.1473072 L12.6598443,23.2396597 L12.6498822,23.2499052 L12.6498822,23.2499052 L12.6471943,23.2611114 L12.6650943,23.6906389 L12.6699349,23.7034178 L12.6699349,23.7034178 L12.678386,23.7104931 L12.8793402,23.8032389 C12.8914285,23.8068999 12.9022333,23.8029875 12.9078286,23.7952264 L12.9118235,23.7811639 L12.8776777,23.1665331 C12.8752882,23.1545897 12.8674102,23.1470016 12.8583906,23.1452862 L12.8583906,23.1452862 Z M12.1430473,23.1473072 C12.1332178,23.1423925 12.1221763,23.1452606 12.1156365,23.1525954 L12.1099173,23.1665331 L12.0757714,23.7811639 C12.0751323,23.7926639 12.0828099,23.8018602 12.0926481,23.8045676 L12.108256,23.8032389 L12.3092106,23.7104931 L12.3186497,23.7024347 L12.3186497,23.7024347 L12.3225043,23.6906389 L12.340401,23.2611114 L12.337245,23.2485176 L12.337245,23.2485176 L12.3277531,23.2396597 L12.1430473,23.1473072 Z" id="MingCute" fill-rule="nonzero"></path>
                <path d="M21,14 L21,18 C21,19.597725 19.7511226,20.903664 18.1762773,20.9949075 L18,21 L13,21 L13,14 L21,14 Z M11,14 L11,21 L6,21 C4.40232321,21 3.09633941,19.7511226 3.00509271,18.1762773 L3,18 L3,14 L11,14 Z M8.66667,2 C10.007,2 11.2051,2.60849 12,3.56429 C12.7452187,2.6682275 13.8448125,2.07741793 15.0837239,2.00706698 L15.3333,2 L15.4,2 C16.8359,2 18,3.16406 18,4.6 C18,5.0159 17.9253472,5.4143625 17.7886574,5.7827081 L17.6993,6 L18,6 C19.597725,6 20.903664,7.24892392 20.9949075,8.82372764 L21,9 L21,12 L13,12 L13,6 L11,6 L11,12 L3,12 L3,9 C3,7.40232321 4.24892392,6.09633941 5.82372764,6.00509271 L6,6 L6.3007,6 C6.10753,5.57305 6,5.09908 6,4.6 C6,3.21928846 7.07623891,2.08994527 8.43557194,2.00511519 L8.6,2 L8.66667,2 Z M8.66667,4 L8.6,4 C8.26863,4 8,4.26863 8,4.6 C8,5.3732 8.6268,6 9.4,6 L10.9764,6 C10.8146,4.86924 9.84216,4 8.66667,4 Z M15.4,4 L15.3333,4 C14.2137762,4 13.2784701,4.7884263 13.052163,5.84030753 L13.0236,6 L14.6,6 C15.3732,6 16,5.3732 16,4.6 C16,4.301767 15.782434,4.0543534 15.4973302,4.00785301 L15.4,4 Z" id="形状" fill="#09244B"></path>
            </g>
        </g>
    </g>
</svg>

<svg xmlns="http://www.w3.org/2000/svg" width="24" height="24"><g fill="none" fill-rule="evenodd"><path d="M24 0v24H0V0zM12.593 23.258l-.011.002-.071.035-.02.004-.014-.004-.071-.035c-.01-.004-.019-.001-.024.005l-.004.01-.017.428.005.02.01.013.104.074.015.004.012-.004.104-.074.012-.016.004-.017-.017-.427c-.002-.01-.009-.017-.017-.018m.265-.113-.013.002-.185.093-.01.01-.003.011.018.43.005.012.008.007.201.093c.012.004.023 0 .029-.008l.004-.014-.034-.614c-.003-.012-.01-.02-.02-.022m-.715.002a.023.023 0 0 0-.027.006l-.006.014-.034.614c0 .012.007.02.017.024l.015-.002.201-.093.01-.008.004-.011.017-.43-.003-.012-.01-.01z"/><path fill="#09244B" d="M21 14v4a3 3 0 0 1-2.824 2.995L18 21h-5v-7zm-10 0v7H6a3 3 0 0 1-2.995-2.824L3 18v-4zM8.667 2c1.34 0 2.538.608 3.333 1.564a4.325 4.325 0 0 1 3.084-1.557l.25-.007h.066A2.6 2.6 0 0 1 18 4.6c0 .416-.075.814-.211 1.183l-.09.217H18a3 3 0 0 1 2.995 2.824L21 9v3h-8V6h-2v6H3V9a3 3 0 0 1 2.824-2.995L6 6h.3c-.192-.427-.3-.9-.3-1.4a2.6 2.6 0 0 1 2.436-2.595L8.6 2zm0 2H8.6a.6.6 0 0 0-.6.6A1.4 1.4 0 0 0 9.4 6h1.576a2.334 2.334 0 0 0-2.31-2M15.4 4h-.067c-1.12 0-2.055.788-2.28 1.84l-.03.16H14.6A1.4 1.4 0 0 0 16 4.6a.6.6 0 0 0-.503-.592z"/></g></svg>
